X: 599
T: Sweet Molly
C:
O:Scotland
B:Keith Norman MacDonald : "The Skye collection of the best reels & strathspeys extant" : 1887
Z:Ralph Palmer
R:Reel
M:C|
L:1/8
K:B phrygian
e | E/E/E (BE) {/^c}dEBe | {/^c}dBAF DEFD | E/E/E (BE) {/^c}dEBe | {/^c}dBAF BBE :|
F | (Ee)(ef) {/f}gfed | (B{/^c}d)(AF) DEFD | (Ee)(ef) {/f}gfed | (B{/^c}d)(AF) BEEF |
(Ee)(ef) {/f}gfed | (B{/^c}d)(AF) DEFf | afge fde^c | {/^c}dBAF BB [B,E] |]


